X:1
T: Polonaise CF chords
T:Hanny Christen. Bd.I Zürich, Schaffhausen, St. Gallen I. S.186 (PL00374) orig. C,F-Dur
T: Z\"urcher Oberland, L\"andlermusig am Bachtel. S.40-274
M:3/4
L:1/8
K:C %%MIDI gchordon
"C"cG ec ge | "Dm"aa/g/ fe dc | "G7"B/c/d/e/ fg ab | "C"c'>cc2z2 || "C"e3f/e/ dc | 
G3c ea | "G7"gB d3a | "C"gc e3G | e3f/e/ d/c/B/A/ | G3c ea | "G"gd/g/ bg "D7"^fg | "G"g>gg2z2 |: 
 "G7"fg dg Bf | "C"eag3e | "G7"g/f/d/B/ G3F | "C"E/G/c/e/ g3g | "G7"fg dg Bg | "C"ea g3e | 
"Dm"df "G7"ba gB | "C"ce/d/ "G7"d3"C"c ::[K:F] "F"c3f af | "Gm"d3g bg | "C7"e3d cB | "F"A>d c3c | 
c3f af | "Gm"d3g bg | "C7"e3d c>e | "F"f>ff2z2 :| "C7"bb/a/ ge fg | "F"afc4 | 
"Dm"c'c'/b/ af ga | "Gm"bgd4 | "C7"ge"F"f2a2 | "C7"ge"F"f2 c'2 | "C7"b/a/g/f/ ec de | "F"f>ff2z2 |] 

